Adwaita++-Dark/actions/22/media-playlist-shuffle.svg

<svg height="22" viewBox="0 0 22 22" width="22" xmlns="http://www.w3.org/2000/svg">
  <path d="m11 1v2h-1.6171875l-4 8h-4.3828125v2h5.6191406l4.0000004-8h.380859v2l4-3zm-10 2v2h4.3828125l.9414063 1.8828125 1.1171874-2.2363281-.8222656-1.6464844zm10 6v2h-.380859l-.9414066-1.8828125-1.1191406 2.2363285.8242187 1.646484h1.6171875v2l4-3z" fill="#e6ddff" transform="translate(3 3)"/>
</svg>

<svg xmlns="http://www.w3.org/2000/svg" width="22" height="22" viewBox="0 0 22 22">
 <defs>
  <style id="current-color-scheme" type="text/css">
   .ColorScheme-Text { color:#E6DDFF; } .ColorScheme-Highlight { color:#4285f4; }
  </style>
 </defs>
 <path style="fill:currentColor" class="ColorScheme-Text" d="M 11 1 L 11 3 L 9.3828125 3 L 5.3828125 11 L 1 11 L 1 13 L 6.6191406 13 L 10.619141 5 L 11 5 L 11 7 L 15 4 L 11 1 z M 1 3 L 1 5 L 5.3828125 5 L 6.3242188 6.8828125 L 7.4414062 4.6464844 L 6.6191406 3 L 1 3 z M 11 9 L 11 11 L 10.619141 11 L 9.6777344 9.1171875 L 8.5585938 11.353516 L 9.3828125 13 L 11 13 L 11 15 L 15 12 L 11 9 z" transform="translate(3 3)"/>
</svg>
